X:1     %Music
T:Come O'er the Stream Charlie
B:Singing Together, Summer 1967, BBC Publications
F:http://www.folkinfo.org/songs
M:3/4     %Meter
L:1/8     %
K:F
C2 |F3 A c2 |c2 A2 B2 |c2 A2 f2 | c2 A2
w:Come o'er the stream, Char-lie, dear Char-lie, brave Char-lie, 
 G2 |F3 A c2 |c2 A2 F2 |C3 A G2 | F4 
w:Come o'er the stream Char-lie, and dine with Mac-Lean;
C2 |F3 A c2 |c2 A2 d2 |c2 A2 f2 | c2 A2 
w: And though you be wea-ry, we'll make your heart cheer-ie,
G2 |F3 A c2 |c2 A2 F2 |C3 A G2 | "Fine"F4 ||
w: And wel-come our Char-lie and his loy-al train.
c2 |f2 e2 f2 |d2 e2 g2 |d2 e2 g2 |e2 d2
w:We'll bring down the red deer, we'll bring down the black steer,
 c2 |f2 e2 f2 |d2 c2 B2 | G2 F2 F2 |c4 
w: The lamb from the breck-en and doe from the glen; 
A2 |B2 d2 B2 |A2 c2 f2 | c2 A2 F2 |A2 G2 
w:The salt sea we'll har-ry and bring to our Char-lie,
c2 |f3 d B2 |c2 A2 F2 | C3 A G2 |F4 z2 |]
w: the cream of the bo-thy, the curd from the pen. 